X:1
T:Skye Boat Song
M:6/8
L:1/8
K:Bb
 F3/2 G/2 F B2 A/2B/2| c3/2 d/2 c f3| d2 c/2d/2 G2 G| F3- F2 z| F2 G/2F/2 B2 B|\
 c3/2 d/2 c f3| d2 c/2d/2 G2 G| F3 z3| d3/2 B/2 d d3| c3/2 G/2 c c3|\
 B/2 G3/2 B B2 B| G3- G2 z| d3/2 B/2 d d3| c3/2 G/2 c c3| B/2 G3/2 B B2 B|\
 G3 z3|

